img/twitter.svg

<svg xmlns="http://www.w3.org/2000/svg" preserveAspectRatio="xMidYMid" width="18" height="13" viewBox="0 0 18 13"><defs><style>.cls-2{fill:#828c8e}</style></defs><path d="M14.015 2.03c-.011-.006-.022-.018-.033-.029a3.156 3.156 0 0 0-2.309-.836l-.027-.06c.005-.006.011-.006.016-.006.802-.177 1.278-.359 1.419-.556.049-.16-.01-.248-.186-.27-.403.05-.775.132-1.108.259.421-.259.585-.44.492-.534-.415.011-.863.215-1.333.617.175-.287.241-.441.197-.469-.223.149-.42.309-.589.48a8.866 8.866 0 0 0-.857 1.052l-.011.027a9.212 9.212 0 0 0-1.19 2.654l-.087.067-.016.015a4.42 4.42 0 0 0-1.229-1.025 14.832 14.832 0 0 0-2.02-1.029 17.46 17.46 0 0 0-2.571-1.034c-.005.93.47 1.673 1.414 2.213v.016a3.128 3.128 0 0 0-.966.138c.06.865.699 1.459 1.911 1.789l-.006.017a1.418 1.418 0 0 0-1.174.463c.399.749 1.103 1.106 2.124 1.079-.202.099-.36.208-.464.33a.665.665 0 0 0-.186.661c.219.379.612.555 1.19.528l.033.039-.016.016c-.999.992-2.205 1.438-3.62 1.344l-.021.011c-.863-.006-1.785-.402-2.784-1.195 1.004 1.387 2.336 2.389 3.985 3.018 1.888.6 3.777.644 5.66.131h.033c1.829-.507 3.379-1.547 4.656-3.121.59-.827.961-1.613 1.108-2.368.956.033 1.643-.231 2.069-.793l-.01-.016c-.317.109-.94.077-1.862-.105v-.099c0-.005 0-.005.006 0 1.009-.11 1.604-.424 1.796-.942a2.936 2.936 0 0 1-2.086.023c-.125-.915-.573-1.746-1.348-2.5z" id="path-1" class="cls-2" fill-rule="evenodd"/></svg>

<svg xmlns="http://www.w3.org/2000/svg" xmlns:xlink="http://www.w3.org/1999/xlink" preserveAspectRatio="xMidYMid" width="18" height="13" viewBox="0 0 18 13">
  <defs>
    <style>

      .cls-2 {
        fill: #828c8e;
      }
    </style>
  </defs>
  <path d="M14.015,2.030 C14.004,2.024 13.993,2.012 13.982,2.001 C13.327,1.412 12.558,1.132 11.673,1.165 C11.673,1.165 11.646,1.105 11.646,1.105 C11.651,1.099 11.657,1.099 11.662,1.099 C12.464,0.922 12.940,0.740 13.081,0.543 C13.130,0.383 13.071,0.295 12.895,0.273 C12.492,0.323 12.120,0.405 11.787,0.532 C12.208,0.273 12.372,0.092 12.279,-0.002 C11.864,0.009 11.416,0.213 10.946,0.615 C11.121,0.328 11.187,0.174 11.143,0.146 C10.920,0.295 10.723,0.455 10.554,0.626 C10.199,1.005 9.915,1.358 9.697,1.678 C9.697,1.678 9.686,1.705 9.686,1.705 C9.124,2.580 8.731,3.461 8.496,4.359 C8.496,4.359 8.409,4.426 8.409,4.426 C8.409,4.426 8.393,4.441 8.393,4.441 C8.054,4.034 7.650,3.692 7.164,3.416 C6.591,3.059 5.920,2.718 5.144,2.387 C4.299,1.969 3.441,1.622 2.573,1.353 C2.568,2.283 3.043,3.026 3.987,3.566 C3.987,3.566 3.987,3.582 3.987,3.582 C3.654,3.576 3.332,3.626 3.021,3.720 C3.081,4.585 3.720,5.179 4.932,5.509 C4.932,5.509 4.926,5.526 4.926,5.526 C4.451,5.499 4.058,5.658 3.752,5.989 C4.151,6.738 4.855,7.095 5.876,7.068 C5.674,7.167 5.516,7.276 5.412,7.398 C5.226,7.586 5.166,7.806 5.226,8.059 C5.445,8.438 5.838,8.614 6.416,8.587 C6.416,8.587 6.416,8.587 6.416,8.587 C6.416,8.587 6.449,8.626 6.449,8.626 C6.444,8.631 6.438,8.637 6.433,8.642 C5.434,9.634 4.228,10.080 2.813,9.986 C2.813,9.986 2.792,9.997 2.792,9.997 C1.929,9.991 1.007,9.595 0.008,8.802 C1.012,10.189 2.344,11.191 3.993,11.820 C5.881,12.420 7.770,12.464 9.653,11.951 C9.653,11.951 9.686,11.951 9.686,11.951 C11.515,11.444 13.065,10.404 14.342,8.830 C14.932,8.003 15.303,7.217 15.450,6.462 C16.406,6.495 17.093,6.231 17.519,5.669 C17.519,5.669 17.509,5.653 17.509,5.653 C17.192,5.762 16.569,5.730 15.647,5.548 C15.647,5.548 15.647,5.449 15.647,5.449 C15.647,5.444 15.647,5.444 15.653,5.449 C16.662,5.339 17.257,5.025 17.449,4.507 C16.744,4.772 16.051,4.776 15.363,4.530 C15.238,3.615 14.790,2.784 14.015,2.030 Z" id="path-1" class="cls-2" fill-rule="evenodd"/>
</svg>
